creative-commons.svg

<svg fill="currentColor" viewBox="0 0 24 24"><path d="m11.89 10.34-1.34.7c-.14-.3-.31-.51-.52-.63s-.41-.18-.58-.18c-.9 0-1.34.59-1.34 1.77 0 .54.11.97.34 1.29.22.32.55.48 1 .48.58 0 .99-.27 1.23-.86l1.23.63c-.26.49-.62.87-1.09 1.15q-.69.42-1.53.42c-.9 0-1.62-.27-2.17-.82C6.58 13.74 6.3 13 6.3 12c0-.95.28-1.7.83-2.26q.84-.84 2.1-.84c1.24-.01 2.13.48 2.66 1.44m5.77 0-1.32.7c-.14-.3-.34-.51-.53-.63q-.315-.18-.6-.18c-.89 0-1.34.59-1.34 1.77 0 .54.13.97.34 1.29.23.32.56.48 1 .48.59 0 1-.27 1.24-.86l1.25.63c-.28.49-.65.87-1.11 1.15-.47.28-.97.42-1.52.42-.9 0-1.63-.27-2.17-.82S12.09 13 12.09 12c0-.95.28-1.7.83-2.26S14.17 8.9 15 8.9c1.26-.01 2.14.48 2.66 1.44M12 3.5a8.5 8.5 0 0 1 8.5 8.5 8.5 8.5 0 0 1-8.5 8.5A8.5 8.5 0 0 1 3.5 12 8.5 8.5 0 0 1 12 3.5M12 2A10 10 0 0 0 2 12a10 10 0 0 0 10 10 10 10 0 0 0 10-10A10 10 0 0 0 12 2"/></svg>

<svg  viewBox="0 0 24 24" fill="currentColor"><path  d="M11.89,10.34L10.55,11.04C10.41,10.74 10.24,10.53 10.03,10.41C9.82,10.29 9.62,10.23 9.45,10.23C8.55,10.23 8.11,10.82 8.11,12C8.11,12.54 8.22,12.97 8.45,13.29C8.67,13.61 9,13.77 9.45,13.77C10.03,13.77 10.44,13.5 10.68,12.91L11.91,13.54C11.65,14.03 11.29,14.41 10.82,14.69C10.36,14.97 9.85,15.11 9.29,15.11C8.39,15.11 7.67,14.84 7.12,14.29C6.58,13.74 6.3,13 6.3,12C6.3,11.05 6.58,10.3 7.13,9.74C7.69,9.18 8.39,8.9 9.23,8.9C10.47,8.89 11.36,9.38 11.89,10.34M17.66,10.34L16.34,11.04C16.2,10.74 16,10.53 15.81,10.41C15.6,10.29 15.4,10.23 15.21,10.23C14.32,10.23 13.87,10.82 13.87,12C13.87,12.54 14,12.97 14.21,13.29C14.44,13.61 14.77,13.77 15.21,13.77C15.8,13.77 16.21,13.5 16.45,12.91L17.7,13.54C17.42,14.03 17.05,14.41 16.59,14.69C16.12,14.97 15.62,15.11 15.07,15.11C14.17,15.11 13.44,14.84 12.9,14.29C12.36,13.74 12.09,13 12.09,12C12.09,11.05 12.37,10.3 12.92,9.74C13.47,9.18 14.17,8.9 15,8.9C16.26,8.89 17.14,9.38 17.66,10.34M12,3.5A8.5,8.5 0 0,1 20.5,12A8.5,8.5 0 0,1 12,20.5A8.5,8.5 0 0,1 3.5,12A8.5,8.5 0 0,1 12,3.5M12,2A10,10 0 0,0 2,12A10,10 0 0,0 12,22A10,10 0 0,0 22,12A10,10 0 0,0 12,2Z"/></svg>
